src/assets/icons/carouselApartment.svg

<svg width="60" height="60" viewBox="0 0 60 60" fill="none" xmlns="http://www.w3.org/2000/svg">
<g clip-path="url(#clip0)">
<path d="M49.2462 45.3963C55.1761 45.3963 60 40.5933 60 34.6891C60 30.6942 57.7295 27.0315 54.2331 25.202C54.8744 23.8091 55.209 22.2896 55.209 20.7413C55.209 14.8375 50.3851 10.0345 44.4557 10.0345C41.8561 10.0345 39.413 10.9488 37.5 12.5696V6.97757C38.0347 6.86909 38.4375 6.39827 38.4375 5.83401V1.1668C38.4375 0.522326 37.9129 0 37.2656 0H1.17188C0.524597 0 0 0.522326 0 1.1668V5.83401C0 6.39827 0.402832 6.86909 0.9375 6.97757V58.5735C0.9375 59.2179 1.4621 59.7403 2.10938 59.7403H48.0428C48.3897 59.7403 48.7184 59.5876 48.9413 59.3228C49.6623 58.4654 50.0597 57.3775 50.0597 56.259C50.0597 53.7486 48.1023 51.6857 45.6276 51.5006V44.7728C46.783 45.183 48.0084 45.3963 49.2462 45.3963ZM44.4557 12.3681C49.0929 12.3681 52.8653 16.1242 52.8653 20.7417C52.8653 22.3 52.4323 23.821 51.6129 25.14C51.4284 25.4367 51.3867 25.8005 51.5002 26.1309C51.6133 26.4613 51.8692 26.7239 52.1979 26.8465C55.4626 28.0648 57.6562 31.217 57.6562 34.6891C57.6562 39.3062 53.8838 43.0627 49.2462 43.0627C47.9901 43.0627 46.7519 42.782 45.6276 42.2487V38.288L50.9468 32.9913C51.4046 32.5355 51.4046 31.7967 50.9468 31.3409C50.4895 30.8856 49.7475 30.8856 49.2897 31.3409L45.6276 34.9877V32.2046C45.6276 32.2042 45.6276 32.2037 45.6276 32.2033V23.842C45.6276 23.1975 45.1025 22.6752 44.4557 22.6752C43.8084 22.6752 43.2838 23.1975 43.2838 23.842V29.387L42.3143 28.4217C41.8565 27.9663 41.115 27.9663 40.6567 28.4217C40.1994 28.8774 40.1994 29.6163 40.6567 30.072L43.2838 32.6873V37.8039V37.8053V42.2487C42.1591 42.782 40.9209 43.0627 39.6648 43.0627C38.9273 43.0627 38.2022 42.9679 37.5 42.782V16.034C39.0715 13.7327 41.6473 12.3681 44.4557 12.3681ZM43.2838 50.4701C42.0941 49.157 40.3807 48.3639 38.5204 48.3639C38.1747 48.3639 37.8342 48.3922 37.5 48.4455V45.1767C38.2086 45.3211 38.9319 45.3963 39.6648 45.3963C40.903 45.3963 42.128 45.183 43.2838 44.7728V50.4701ZM3.28125 7.00081H13.9064C14.5532 7.00081 15.0783 6.47849 15.0783 5.83401C15.0783 5.18953 14.5532 4.66721 13.9064 4.66721H2.34375V2.3336H36.0938V4.66721H24.4528C23.806 4.66721 23.2809 5.18953 23.2809 5.83401C23.2809 6.47849 23.806 7.00081 24.4528 7.00081H35.1562V49.3133C34.2764 49.853 33.528 50.6032 32.9906 51.5125C32.9311 51.5189 32.8716 51.5271 32.8125 51.5357V45.7386C32.8125 45.0942 32.2879 44.5718 31.6406 44.5718H26.4844C25.8371 44.5718 25.3125 45.0942 25.3125 45.7386V52.2727C25.3125 52.9172 25.8371 53.4395 26.4844 53.4395H29.637C29.0538 54.2303 28.7082 55.2048 28.7082 56.259C28.7082 56.6482 28.7572 57.0334 28.8501 57.4067H3.28125V7.00081ZM30.4688 51.1059H27.6562V46.9054H30.4688V51.1059ZM47.7159 56.259C47.7159 56.661 47.6157 57.0557 47.4275 57.4067H31.3403C31.1526 57.0557 31.0519 56.661 31.0519 56.259C31.0519 54.914 32.151 53.8197 33.5019 53.8197C33.5509 53.8197 33.5999 53.8215 33.6479 53.8242C34.1386 53.852 34.5927 53.5749 34.7896 53.1273C35.4387 51.6515 36.9031 50.6975 38.5204 50.6975C40.28 50.6975 41.8332 51.8147 42.3857 53.4778C42.496 53.8083 42.7483 54.0731 43.0742 54.1989C43.4001 54.3251 43.7659 54.2996 44.0712 54.1291C44.4347 53.9268 44.8476 53.8197 45.266 53.8197C46.6168 53.8197 47.7159 54.914 47.7159 56.259Z" fill="white"/>
<path d="M11.9531 44.5718H6.79688C6.1496 44.5718 5.625 45.0941 5.625 45.7386V52.2727C5.625 52.9171 6.1496 53.4395 6.79688 53.4395H11.9531C12.6004 53.4395 13.125 52.9171 13.125 52.2727V45.7386C13.125 45.0941 12.6004 44.5718 11.9531 44.5718ZM10.7812 51.1059H7.96875V46.9054H10.7812V51.1059Z" fill="white"/>
<path d="M21.7969 44.5718H16.6406C15.9933 44.5718 15.4688 45.0941 15.4688 45.7386V52.2727C15.4688 52.9171 15.9933 53.4395 16.6406 53.4395H21.7969C22.4442 53.4395 22.9688 52.9171 22.9688 52.2727V45.7386C22.9688 45.0941 22.4442 44.5718 21.7969 44.5718ZM20.625 51.1059H17.8125V46.9054H20.625V51.1059Z" fill="white"/>
<path d="M11.9531 33.3706H6.79688C6.1496 33.3706 5.625 33.8929 5.625 34.5374V41.0715C5.625 41.716 6.1496 42.2383 6.79688 42.2383H11.9531C12.6004 42.2383 13.125 41.716 13.125 41.0715V34.5374C13.125 33.8929 12.6004 33.3706 11.9531 33.3706ZM10.7812 39.9047H7.96875V35.7042H10.7812V39.9047Z" fill="white"/>
<path d="M21.7969 33.3706H16.6406C15.9933 33.3706 15.4688 33.8929 15.4688 34.5374V41.0715C15.4688 41.716 15.9933 42.2383 16.6406 42.2383H21.7969C22.4442 42.2383 22.9688 41.716 22.9688 41.0715V34.5374C22.9688 33.8929 22.4442 33.3706 21.7969 33.3706ZM20.625 39.9047H17.8125V35.7042H20.625V39.9047Z" fill="white"/>
<path d="M26.4844 42.2383H31.6406C32.2879 42.2383 32.8125 41.716 32.8125 41.0715V34.5374C32.8125 33.8929 32.2879 33.3706 31.6406 33.3706H26.4844C25.8371 33.3706 25.3125 33.8929 25.3125 34.5374V41.0715C25.3125 41.716 25.8371 42.2383 26.4844 42.2383ZM27.6562 35.7042H30.4688V39.9047H27.6562V35.7042Z" fill="white"/>
<path d="M11.9531 22.1692H6.79688C6.1496 22.1692 5.625 22.6915 5.625 23.336V29.8701C5.625 30.5146 6.1496 31.0369 6.79688 31.0369H11.9531C12.6004 31.0369 13.125 30.5146 13.125 29.8701V23.336C13.125 22.6915 12.6004 22.1692 11.9531 22.1692ZM10.7812 28.7033H7.96875V24.5028H10.7812V28.7033Z" fill="white"/>
<path d="M21.7969 22.1692H16.6406C15.9933 22.1692 15.4688 22.6915 15.4688 23.336V29.8701C15.4688 30.5146 15.9933 31.0369 16.6406 31.0369H21.7969C22.4442 31.0369 22.9688 30.5146 22.9688 29.8701V23.336C22.9688 22.6915 22.4442 22.1692 21.7969 22.1692ZM20.625 28.7033H17.8125V24.5028H20.625V28.7033Z" fill="white"/>
<path d="M26.4844 31.0369H31.6406C32.2879 31.0369 32.8125 30.5146 32.8125 29.8701V23.336C32.8125 22.6915 32.2879 22.1692 31.6406 22.1692H26.4844C25.8371 22.1692 25.3125 22.6915 25.3125 23.336V29.8701C25.3125 30.5146 25.8371 31.0369 26.4844 31.0369ZM27.6562 24.5028H30.4688V28.7033H27.6562V24.5028Z" fill="white"/>
<path d="M11.9531 10.968H6.79688C6.1496 10.968 5.625 11.4903 5.625 12.1348V18.6689C5.625 19.3134 6.1496 19.8357 6.79688 19.8357H11.9531C12.6004 19.8357 13.125 19.3134 13.125 18.6689V12.1348C13.125 11.4903 12.6004 10.968 11.9531 10.968ZM10.7812 17.5021H7.96875V13.3016H10.7812V17.5021Z" fill="white"/>
<path d="M21.7969 10.968H16.6406C15.9933 10.968 15.4688 11.4903 15.4688 12.1348V18.6689C15.4688 19.3134 15.9933 19.8357 16.6406 19.8357H21.7969C22.4442 19.8357 22.9688 19.3134 22.9688 18.6689V12.1348C22.9688 11.4903 22.4442 10.968 21.7969 10.968ZM20.625 17.5021H17.8125V13.3016H20.625V17.5021Z" fill="white"/>
<path d="M26.4844 19.8357H31.6406C32.2879 19.8357 32.8125 19.3134 32.8125 18.6689V12.1348C32.8125 11.4903 32.2879 10.968 31.6406 10.968H26.4844C25.8371 10.968 25.3125 11.4903 25.3125 12.1348V18.6689C25.3125 19.3134 25.8371 19.8357 26.4844 19.8357ZM27.6562 13.3016H30.4688V17.5021H27.6562V13.3016Z" fill="white"/>
<path d="M19.1803 7.00084C19.4884 7.00084 19.7905 6.87596 20.0084 6.659C20.2263 6.44205 20.3522 6.14078 20.3522 5.83404C20.3522 5.5273 20.2267 5.22603 20.0084 5.00907C19.7905 4.79212 19.4884 4.66724 19.1803 4.66724C18.8704 4.66724 18.5696 4.79212 18.3517 5.00907C18.1325 5.22603 18.0084 5.5273 18.0084 5.83404C18.0084 6.14078 18.1325 6.44205 18.3517 6.659C18.5696 6.87596 18.8704 7.00084 19.1803 7.00084Z" fill="white"/>
</g>
<defs>
<clipPath id="clip0">
<rect width="60" height="59.7403" fill="white"/>
</clipPath>
</defs>
</svg>

<svg xmlns="http://www.w3.org/2000/svg" width="60" height="60" fill="none"><g fill="#fff" clip-path="url(#a)"><path d="M49.246 45.396C55.176 45.396 60 40.593 60 34.69c0-3.995-2.27-7.657-5.767-9.487.641-1.393.976-2.912.976-4.46 0-5.905-4.824-10.708-10.753-10.708-2.6 0-5.043.915-6.956 2.536V6.978a1.17 1.17 0 0 0 .938-1.144V1.167A1.17 1.17 0 0 0 37.266 0H1.172A1.17 1.17 0 0 0 0 1.167v4.667c0 .564.403 1.035.938 1.144v51.596a1.17 1.17 0 0 0 1.171 1.166h45.934c.347 0 .675-.152.898-.417a4.768 4.768 0 0 0 1.119-3.064c0-2.51-1.958-4.573-4.432-4.758v-6.728c1.155.41 2.38.623 3.618.623Zm-4.79-33.028c4.637 0 8.41 3.756 8.41 8.374 0 1.558-.434 3.079-1.253 4.398a1.162 1.162 0 0 0 .585 1.706c3.265 1.219 5.458 4.371 5.458 7.843 0 4.617-3.772 8.374-8.41 8.374a8.452 8.452 0 0 1-3.618-.814v-3.961l5.319-5.297a1.163 1.163 0 0 0 0-1.65 1.176 1.176 0 0 0-1.657 0l-3.662 3.647V23.842a1.17 1.17 0 0 0-1.172-1.167 1.17 1.17 0 0 0-1.172 1.167v5.545l-.97-.965a1.176 1.176 0 0 0-1.657 0 1.164 1.164 0 0 0 0 1.65l2.627 2.615V42.25a8.455 8.455 0 0 1-5.784.533V16.034a8.377 8.377 0 0 1 6.956-3.666ZM43.284 50.47a6.417 6.417 0 0 0-5.784-2.024v-3.27a10.828 10.828 0 0 0 5.784-.403v5.697ZM3.28 7h10.625a1.17 1.17 0 0 0 1.172-1.166 1.17 1.17 0 0 0-1.172-1.167H2.344V2.334h33.75v2.333H24.453a1.17 1.17 0 0 0-1.172 1.167 1.17 1.17 0 0 0 1.172 1.167h10.703v42.312a6.403 6.403 0 0 0-2.165 2.2c-.06.006-.12.014-.178.023v-5.797a1.17 1.17 0 0 0-1.172-1.167h-5.157a1.17 1.17 0 0 0-1.172 1.167v6.534a1.17 1.17 0 0 0 1.172 1.166h3.153a4.734 4.734 0 0 0-.787 3.968H3.281V7ZM30.47 51.107h-2.813v-4.2h2.813v4.2Zm17.247 5.153c0 .402-.1.797-.288 1.148H31.34a2.437 2.437 0 0 1-.288-1.148 2.447 2.447 0 0 1 2.596-2.435c.49.028.945-.25 1.142-.697a4.075 4.075 0 0 1 3.73-2.43 4.063 4.063 0 0 1 3.866 2.78 1.175 1.175 0 0 0 1.685.651c.364-.201.777-.308 1.195-.308 1.35 0 2.45 1.094 2.45 2.439Z"/><path d="M11.953 44.572H6.797a1.17 1.17 0 0 0-1.172 1.167v6.534a1.17 1.17 0 0 0 1.172 1.166h5.156a1.17 1.17 0 0 0 1.172-1.166v-6.534a1.17 1.17 0 0 0-1.172-1.167Zm-1.172 6.534H7.97v-4.2h2.812v4.2ZM21.797 44.572H16.64a1.17 1.17 0 0 0-1.172 1.167v6.534a1.17 1.17 0 0 0 1.172 1.166h5.156a1.17 1.17 0 0 0 1.172-1.166v-6.534a1.17 1.17 0 0 0-1.172-1.167Zm-1.172 6.534h-2.813v-4.2h2.813v4.2ZM11.953 33.37H6.797a1.17 1.17 0 0 0-1.172 1.167v6.535a1.17 1.17 0 0 0 1.172 1.166h5.156a1.17 1.17 0 0 0 1.172-1.166v-6.535a1.17 1.17 0 0 0-1.172-1.166Zm-1.172 6.535H7.97v-4.2h2.812v4.2ZM21.797 33.37H16.64a1.17 1.17 0 0 0-1.172 1.167v6.535a1.17 1.17 0 0 0 1.172 1.166h5.156a1.17 1.17 0 0 0 1.172-1.166v-6.535a1.17 1.17 0 0 0-1.172-1.166Zm-1.172 6.535h-2.813v-4.2h2.813v4.2ZM26.484 42.238h5.157a1.17 1.17 0 0 0 1.172-1.166v-6.535a1.17 1.17 0 0 0-1.172-1.166h-5.157a1.17 1.17 0 0 0-1.172 1.166v6.535a1.17 1.17 0 0 0 1.172 1.166Zm1.172-6.534h2.813v4.2h-2.813v-4.2ZM11.953 22.17H6.797a1.17 1.17 0 0 0-1.172 1.166v6.534a1.17 1.17 0 0 0 1.172 1.167h5.156a1.17 1.17 0 0 0 1.172-1.167v-6.534a1.17 1.17 0 0 0-1.172-1.167Zm-1.172 6.533H7.97v-4.2h2.812v4.2ZM21.797 22.17H16.64a1.17 1.17 0 0 0-1.172 1.166v6.534a1.17 1.17 0 0 0 1.172 1.167h5.156a1.17 1.17 0 0 0 1.172-1.167v-6.534a1.17 1.17 0 0 0-1.172-1.167Zm-1.172 6.533h-2.813v-4.2h2.813v4.2ZM26.484 31.037h5.157a1.17 1.17 0 0 0 1.172-1.167v-6.534a1.17 1.17 0 0 0-1.172-1.167h-5.157a1.17 1.17 0 0 0-1.172 1.167v6.534a1.17 1.17 0 0 0 1.172 1.167Zm1.172-6.534h2.813v4.2h-2.813v-4.2ZM11.953 10.968H6.797a1.17 1.17 0 0 0-1.172 1.167v6.534a1.17 1.17 0 0 0 1.172 1.167h5.156a1.17 1.17 0 0 0 1.172-1.167v-6.534a1.17 1.17 0 0 0-1.172-1.167Zm-1.172 6.534H7.97v-4.2h2.812v4.2ZM21.797 10.968H16.64a1.17 1.17 0 0 0-1.172 1.167v6.534a1.17 1.17 0 0 0 1.172 1.167h5.156a1.17 1.17 0 0 0 1.172-1.167v-6.534a1.17 1.17 0 0 0-1.172-1.167Zm-1.172 6.534h-2.813v-4.2h2.813v4.2ZM26.484 19.836h5.157a1.17 1.17 0 0 0 1.172-1.167v-6.534a1.17 1.17 0 0 0-1.172-1.167h-5.157a1.17 1.17 0 0 0-1.172 1.167v6.534a1.17 1.17 0 0 0 1.172 1.167Zm1.172-6.534h2.813v4.2h-2.813v-4.2ZM19.18 7c.308 0 .61-.124.828-.341.218-.217.344-.518.344-.825a1.172 1.172 0 0 0-2.344 0 1.168 1.168 0 0 0 1.172 1.167Z"/></g><defs><clipPath id="a"><path fill="#fff" d="M0 0h60v59.74H0z"/></clipPath></defs></svg>
